packages/symbols/svgs/outline/users-outline.svg

<svg width="24" height="24" viewBox="0 0 24 24" fill="none" xmlns="http://www.w3.org/2000/svg">
<path fill-rule="evenodd" clip-rule="evenodd" d="M14.4856 3.01531C14.941 2.39829 15.6735 2 16.4999 2C17.8807 2 18.9999 3.11928 18.9999 4.5V5.5C18.9999 6.09249 18.7938 6.63684 18.4494 7.06527C17.9912 7.63522 17.2882 8 16.4999 8C16.3245 8 16.1589 7.98317 16 7.95027V7C16 5.47078 15.4277 4.07503 14.4856 3.01531ZM12.5776 3.94146C12.5909 3.9534 12.6044 3.96501 12.6184 3.97628C13.4646 4.70978 14 5.79251 14 7V8.63161C13.9996 8.64741 13.9996 8.66319 14 8.67894V9C14 11.2087 12.2087 13 10 13C7.79128 13 6 11.2087 6 9V7C6 4.79128 7.79128 3 10 3C10.982 3 11.8814 3.35406 12.5776 3.94146ZM12.9267 1.76119C13.7492 0.689468 15.0434 0 16.4999 0C18.9852 0 20.9999 2.01472 20.9999 4.5V5.5C20.9999 6.16002 20.8579 6.78684 20.6026 7.35156L22.5666 8.52998C23.4568 9.0631 24 10.0244 24 11.06V15C24 15.5523 23.5523 16 23 16H19.4567C19.8062 16.5717 20 17.2369 20 17.929V22C20 22.5523 19.5523 23 19 23H1C0.447715 23 0 22.5523 0 22L0 17.929C0 16.6288 0.682259 15.424 1.79709 14.7562L5.26152 12.6807C4.4709 11.6644 4 10.3871 4 9V7C4 3.68672 6.68672 1 10 1C11.0627 1 12.0609 1.27639 12.9267 1.76119ZM6.81167 14.0835L2.82491 16.4719C2.31376 16.778 2 17.3312 2 17.929V21H18V17.929C18 17.3326 17.6866 16.7789 17.1744 16.4714L13.1883 14.0835C12.2646 14.6641 11.1715 15 10 15C8.82855 15 7.73542 14.6641 6.81167 14.0835ZM14.7385 12.6807L16.9407 14H22V11.06C22 10.7257 21.8249 10.4169 21.5394 10.246L19.3852 8.95348C18.604 9.60678 17.5979 10 16.4999 10C16.3029 10 16.1107 9.98771 15.923 9.96366C15.7594 10.9766 15.3421 11.9047 14.7385 12.6807Z" fill="black"/>
</svg>

<svg width="24" height="24" viewBox="0 0 24 24" xmlns="http://www.w3.org/2000/svg"><path fill-rule="evenodd" clip-rule="evenodd" d="M14.486 3.015A2.5 2.5 0 0 1 19 4.5v1a2.495 2.495 0 0 1-3 2.45V7c0-1.53-.572-2.925-1.514-3.985Zm-1.908.926A3.991 3.991 0 0 1 14 7v2a4 4 0 0 1-8 0V7a4 4 0 0 1 6.578-3.059Zm.349-2.18A4.5 4.5 0 0 1 21 4.5v1a4.49 4.49 0 0 1-.397 1.852l1.964 1.178A2.949 2.949 0 0 1 24 11.06V15a1 1 0 0 1-1 1h-3.543c.35.572.543 1.237.543 1.929V22a1 1 0 0 1-1 1H1a1 1 0 0 1-1-1v-4.071c0-1.3.682-2.505 1.797-3.173l3.465-2.075A5.974 5.974 0 0 1 4 9V7a6 6 0 0 1 8.927-5.239ZM6.812 14.084l-3.987 2.388A1.7 1.7 0 0 0 2 17.929V21h16v-3.071a1.7 1.7 0 0 0-.826-1.458l-3.986-2.387A5.971 5.971 0 0 1 10 15a5.972 5.972 0 0 1-3.188-.916Zm7.926-1.403L16.942 14H22v-2.94a.948.948 0 0 0-.46-.814l-2.155-1.293a4.482 4.482 0 0 1-3.462 1.01 5.973 5.973 0 0 1-1.184 2.718Z"/></svg>
